X: 145
T: Willie Coleman's
R: jig
M: 6/8
L: 1/8
K: Gmaj
A|"G"B2 "D"G AGE |"G" GED GBd |"C" edB dgb |"D" age dBA |
"G"B2 G "D"AGE |"G" GED GBd |"C" edB "D"dBA |1"G" AGF G2:|2"G" AGF GBd|
"G"~g3 edB | "Am"dgb age| "Bm"gfg edB | "C"GBd "D"e2 f |
"Em"gfg edB | "Bm"dgb age | "C"dBd "Em"gdB | "D"AGF "G"G2:|

